X: 11504
Q: "Moderate."
M: 6/8
L: 1/8
K: G
(G>A)G (G>F)E | (F<D)D (G>F)G |\
(A>G)A B2(B/c/) | (d>e)d (d>B)G |\
(A<F)D E>FG | (A>F)D G3 :|
(g>a)g (g>f)e | (f<d)d (g>f)g |\
(a>g)a b2(B/c/) | (d>e)d (d>B)G |\
(A<F)D (E>F)G | (AF)D G2 |]


